icons/action/icon_call_xxl_white.svg

<?xml version="1.0" encoding="UTF-8"?>
<svg width="48px" height="48px" viewBox="0 0 48 48" version="1.1" xmlns="http://www.w3.org/2000/svg" xmlns:xlink="http://www.w3.org/1999/xlink">
    <!-- Generator: Sketch 49 (51002) - http://www.bohemiancoding.com/sketch -->
    <title>icon_call_xxl_white</title>
    <desc>Created with Sketch.</desc>
    <defs></defs>
    <g id="Page-1" stroke="none" stroke-width="1" fill="none" fill-rule="evenodd">
        <g id="Artboard" transform="translate(-16.000000, -16.000000)">
            <g id="icon_call_xxl_white" transform="translate(16.000000, 16.000000)">
                <polygon id="Shape" points="0 0 48 0 48 48 0 48"></polygon>
                <path d="M39.438,12.641 C38.293,8.371 35.275,5.349 33.038,4.057 L32.02,3.469 C31.216861,3.00360367 30.2613088,2.87763634 29.365,3.119 C28.4671627,3.35683283 27.701901,3.94419367 27.24,4.75 L23.977,10.4 C23.5116535,11.2032292 23.3867171,12.1591552 23.63,13.055 C23.872,13.96 24.45,14.715 25.257,15.181 L28.082,16.812 C29.475,17.616 29.884,18.924 29.368,20.928 C28.902,22.742 27.772,24.699 26.865,26.271 L27.73,26.771 C28.668,25.146 29.836,23.124 30.336,21.177 C30.962,18.74 30.372,16.98 28.581,15.946 L25.756,14.315 C25.1819135,13.9837577 24.7639416,13.4369021 24.595,12.796 C24.4207548,12.1564913 24.5093232,11.4738669 24.841,10.9 L28.104,5.25 C28.4344389,4.67439725 28.9814063,4.25489953 29.623,4.085 C30.263007,3.91150447 30.9458384,4.00154026 31.519,4.335 L32.537,4.922 C34.609,6.118 37.406,8.925 38.471,12.899 C39.597,17.103 39.25,21.518 34.05,30.527 C28.849,39.535 25.198,42.043 20.993,43.17 C17.017,44.235 13.191,43.215 11.119,42.02 L10.101,41.433 C9.52568258,41.1027076 9.10623998,40.556172 8.936,39.915 C8.76260485,39.2747695 8.8522521,38.5917942 9.185,38.018 L12.448,32.367 C12.7784389,31.7913972 13.3254063,31.3718995 13.967,31.202 C14.607007,31.0285045 15.2898384,31.1185403 15.863,31.452 L18.688,33.083 C20.48,34.117 22.298,33.749 24.095,31.988 C25.531,30.581 26.793,28.396 27.73,26.771 L27.2979584,26.4963837 L26.865,26.271 C25.958,27.843 24.734,29.962 23.395,31.273 C21.917,32.721 20.582,33.021 19.188,32.216 L16.363,30.585 C15.5602264,30.1185316 14.6042338,29.9925062 13.708,30.235 C12.8104362,30.4727977 12.0452735,31.0597226 11.583,31.865 L8.32,37.518 C7.85304412,38.3209728 7.72699954,39.2774712 7.97,40.174 C8.20783283,41.0718373 8.79519367,41.837099 9.601,42.299 L10.619,42.886 C12.198,43.798 14.718,44.615 17.565,44.615 C18.752,44.615 19.996,44.472 21.253,44.136 C25.704,42.943 29.542,40.334 34.915,31.027 C40.288,21.72 40.629,17.092 39.438,12.641 Z" id="Shape" fill="#FFFFFF" fill-rule="nonzero"></path>
            </g>
        </g>
    </g>
</svg>

<svg width="48" height="48" viewBox="0 0 48 48" xmlns="http://www.w3.org/2000/svg"><g fill="none" fill-rule="evenodd"><path d="M0 0h48v48H0z"/><path d="M39.438 12.641c-1.145-4.27-4.163-7.292-6.4-8.584l-1.018-.588a3.487 3.487 0 0 0-2.655-.35A3.475 3.475 0 0 0 27.24 4.75l-3.263 5.65a3.478 3.478 0 0 0-.347 2.655c.242.905.82 1.66 1.627 2.126l2.825 1.631c1.393.804 1.802 2.112 1.286 4.116-.466 1.814-1.596 3.771-2.503 5.343l.865.5c.938-1.625 2.106-3.647 2.606-5.594.626-2.437.036-4.197-1.755-5.231l-2.825-1.631a2.485 2.485 0 0 1-1.161-1.519 2.484 2.484 0 0 1 .246-1.896l3.263-5.65c.33-.576.877-.995 1.519-1.165a2.48 2.48 0 0 1 1.896.25l1.018.587c2.072 1.196 4.869 4.003 5.934 7.977 1.126 4.204.779 8.619-4.421 17.628-5.201 9.008-8.852 11.516-13.057 12.643-3.976 1.065-7.802.045-9.874-1.15l-1.018-.587a2.486 2.486 0 0 1-1.165-1.518 2.486 2.486 0 0 1 .249-1.897l3.263-5.651c.33-.576.877-.995 1.519-1.165a2.48 2.48 0 0 1 1.896.25l2.825 1.631c1.792 1.034 3.61.666 5.407-1.095 1.436-1.407 2.698-3.592 3.635-5.217l-.432-.275-.433-.225c-.907 1.572-2.131 3.691-3.47 5.002-1.478 1.448-2.813 1.748-4.207.943l-2.825-1.631a3.477 3.477 0 0 0-2.655-.35 3.477 3.477 0 0 0-2.125 1.63L8.32 37.518a3.475 3.475 0 0 0-.35 2.656 3.475 3.475 0 0 0 1.631 2.125l1.018.587c1.579.912 4.099 1.729 6.946 1.729 1.187 0 2.431-.143 3.688-.479 4.451-1.193 8.289-3.802 13.662-13.109 5.373-9.307 5.714-13.935 4.523-18.386z" fill="#FFF" fill-rule="nonzero"/></g></svg>
